app/dist/common/images/chengxin-lithium-g.svg

<svg height="18" viewBox="0 0 18 18" width="18" xmlns="http://www.w3.org/2000/svg"><path d="m0 0h18v18h-18z" fill="#f0f3fa"/><path d="m10.5 6 1.5-2h-4.5l-4.5 8h5l-1.5 2h4l4.5-8h-4.4l-1.1 2h2.5l-2.25 4h-1.75l1-2h-2.75l2.25-4z" fill="#c6212d"/></svg>

<!-- by TradingView --><svg width="18" height="18" viewBox="0 0 18 18" xmlns="http://www.w3.org/2000/svg"><path fill="#F0F3FA" d="M0 0h18v18H0z"/><path d="M10.5 6 12 4H7.5L3 12h5l-1.5 2h4L15 6h-4.4L9.5 8H12l-2.25 4H8l1-2H6.25L8.5 6h2Z" fill="#C6212D"/></svg>
